X:1
T:the Independence
C:attr. Tim Edey, may be trad.
M:4/4
L:1/8
Q:2/4=3D70
R:hornpipe 32
K:G
|:Bc|dgfa (3gab gd|(3efg dc (3Bcd BG|FGAB cBce|(3agf (3gfe d2Bc|
dgfa (3gab gd|(3efg dc (3Bcd bg|fedB cAFG|1(3ABA GF G2:|2(3ABA GF G2AB||
|:(3cdc (3BAG (3FAc (3edc|(3Bcd (3Bdg (3bag (3fed|\
(3cdc (3BAG (3FAc (3edc|(3Bcd (3Bdg (3bag (3fed|
~e2 (3ceg (3c'ba (3gfe|~d2 (3Bdg (3bag (3fed|\
(3ced (3cBA (3fed (3cBA|1(3GBd (3gdB G4:|2(3GBD (3gdB G2|]
